icons/desktop/16/svg/identity-16.svg

<svg width="16" height="16" viewBox="0 0 16 16" fill="none" xmlns="http://www.w3.org/2000/svg">
<path d="M5.5 8.21484C5.98997 8.21484 6.45092 8.24028 6.87891 8.28027C7.51678 8.34026 7.99981 8.89977 8 9.55859V10.041C7.99999 10.475 7.68364 10.8426 7.26465 10.8936C6.61476 10.9715 6.02192 11 5.5 11C4.854 11 4.25961 10.9566 3.72461 10.8916C3.30983 10.8414 3 10.4728 3 10.042V9.55859C3.0002 8.89488 3.49399 8.33749 4.1377 8.27734C4.6317 8.23134 5.088 8.21484 5.5 8.21484Z" fill="black"/>
<path d="M12.25 9C12.6642 9 13 9.33579 13 9.75C13 10.1642 12.6642 10.5 12.25 10.5H10C9.58579 10.5 9.25 10.1642 9.25 9.75C9.25 9.33579 9.58579 9 10 9H12.25Z" fill="black"/>
<path d="M5.5 5C6.19 5 6.75 5.56 6.75 6.25C6.75 6.94 6.19 7.5 5.5 7.5C4.81 7.5 4.25 6.94 4.25 6.25C4.25 5.56 4.81 5 5.5 5Z" fill="black"/>
<path d="M12.25 6C12.6642 6 13 6.33579 13 6.75C13 7.16421 12.6642 7.5 12.25 7.5H10C9.58579 7.5 9.25 7.16421 9.25 6.75C9.25 6.33579 9.58579 6 10 6H12.25Z" fill="black"/>
<path fill-rule="evenodd" clip-rule="evenodd" d="M8 2C9.4553 2 11.0559 2.05884 12.7773 2.21289L13.5225 2.28516L13.7812 2.32422C15.0525 2.57884 16 3.69884 16 5.02539V10.9746C16 12.3741 14.9513 13.5653 13.5459 13.7119C11.8584 13.8874 10.0011 14 8 14C6.33683 14 4.48373 13.9228 2.47754 13.7148C1.07827 13.5696 0 12.3897 0 10.9746V5.02539C0 3.62588 1.04865 2.43465 2.4541 2.28809C4.14156 2.11265 5.99888 2 8 2ZM8 3.5C6.05512 3.5 4.24992 3.60971 2.60938 3.78027C1.9811 3.84597 1.5 4.38109 1.5 5.02539V10.9746C1.5 11.6135 1.99009 12.1559 2.63281 12.2227C4.58244 12.4247 6.3833 12.5 8 12.5C9.94487 12.5 11.7501 12.3903 13.3906 12.2197C14.0189 12.154 14.5 11.6189 14.5 10.9746V5.02539C14.5 4.38652 14.0099 3.84407 13.3672 3.77734C11.4176 3.5753 9.6167 3.5 8 3.5Z" fill="black"/>
</svg>

<!-- This Source Code Form is subject to the terms of the Mozilla Public
   - License, v. 2.0. If a copy of the MPL was not distributed with this
   - file, You can obtain one at http://mozilla.org/MPL/2.0/. -->
<svg xmlns="http://www.w3.org/2000/svg" width="16" height="16" fill="context-fill" fill-opacity="context-fill-opacity" viewBox="0 0 16 16">
    <path d="M5.5 8.215c.49 0 .95.025 1.379.065.638.06 1.12.62 1.121 1.279v.482a.85.85 0 0 1-.735.853 14.703 14.703 0 0 1-3.54-.002c-.415-.05-.725-.42-.725-.85v-.483c0-.664.494-1.222 1.138-1.282.494-.046.95-.062 1.362-.062M12.25 9a.75.75 0 0 1 0 1.5H10A.75.75 0 0 1 10 9zM5.5 5a1.25 1.25 0 1 1 0 2.5 1.25 1.25 0 0 1 0-2.5M12.25 6a.75.75 0 0 1 0 1.5H10A.75.75 0 0 1 10 6z" />
    <path fill-rule="evenodd" d="M8 2c1.455 0 3.056.059 4.777.213l.746.072.258.04A2.76 2.76 0 0 1 16 5.024v5.95c0 1.4-1.049 2.59-2.454 2.737a53.6 53.6 0 0 1-11.068.003A2.76 2.76 0 0 1 0 10.975v-5.95c0-1.4 1.049-2.59 2.454-2.737A54 54 0 0 1 8 2m0 1.5c-1.945 0-3.75.11-5.39.28-.629.066-1.11.601-1.11 1.245v5.95c0 .639.49 1.18 1.133 1.248a52 52 0 0 0 10.758-.003c.628-.066 1.109-.601 1.109-1.245v-5.95c0-.638-.49-1.18-1.133-1.248A52 52 0 0 0 8 3.5" clip-rule="evenodd" />
</svg>
